X:1

T:White Rose Waltz [2]

M:3/4

L:1/8

R:Waltz

S:Page – Northern Junket, vol. 6, No. 3 (1958)

Z:AK/Fiddler’s Companion

K:D

A4d2|B4d2|A2 Bc de|f6|A2 g3f|f4 e2|A2 f3e|e4 d2|

A4d2|B4d2|A2 Bc de|f6|A2 g3f|f4 e2|A2 f3e|d2 z2:|

|:a2|b6|b2 a3g|f6|f2a2d’2|c’6|e2g2b2|a6|f4 a2|

b6|b2 a3g|f6|f2a2d’2|c’6|c’b ag fe|d5 d’|d’2 z2:|

 

WHITE SAILS IN THE BAY.  Irish, Jig. Composed by the late County Tipperary fiddler Seán Ryan (d. 1985). Ryan (The Hidden Ireland), 13.

 

WHITE SNOWDON. AKA and see “Eryri Wen.”

 

WHITE’S SNOWDEN. English, Air (2/4 time). G Major. Standard tuning. AABB. A different tune than “Eryi Wen,” above. The tune also appears as “White Snowdon” in the music manuscript copybook of John Burks, dated 1821, who may have been from the north of England (photocopy in possession of the editor). It is nearly identical with Gibbon’s version. Source for notated version: the 1823-26 music mss of papermaker and musician Joshua Gibbons (1778-1871, of Tealby, near Market Rasen, Lincolnshire Wolds) [Sumner]. Sumner (Lincolnshire Collections, vol. 1: The Joshua Gibbons Manuscript), 1997; pg. 95.

